X: 145
%
U:~=!turn!
T: The Drovers Lads
T: Gillean an Drover
C:Highland Jig
O:Scotland
B:Keith Norman MacDonald : "The Skye collection of the best reels & strathspeys extant" : 1887
Z:Ralph Palmer
R:Jig
M:6/8
L:1/8
K:A dorian
B | GBd g3 | agf (g2 e) | dBB (B2 e) | dBB (B2 A) | GBd g3 | agf (g2 e) | dBA A2 e | dBA A2 :: GBd dBd | ege dBG |
dBB (B2 e) | dBB (B2 A) | GBd dBd | ege dBG | dBA (A2 e) | dBA A2 :: B | GBB gBB | aBB bBB | dBB (B2 e) | dBB (B2 A) | GBB gBB |
aBB bBB | dBA (A2 e) | dBA A2 :: g | bag agf | gfe efg | dBB (B2 e) | dBB (B2 g) | bag agf | gfe efg | dBA (A2 e) | dBA A2 :|


